svg/transport/trunk_fill.svg

<?xml version="1.0" encoding="UTF-8"?>
<svg width="24px" height="24px" viewBox="0 0 24 24" version="1.1" xmlns="http://www.w3.org/2000/svg" xmlns:xlink="http://www.w3.org/1999/xlink">
    <title>trunk_fill</title>
    <g id="Icon" stroke="none" stroke-width="1" fill="none" fill-rule="evenodd">
        <g id="Transport" transform="translate(-48.000000, -336.000000)">
            <g id="trunk_fill" transform="translate(48.000000, 336.000000)">
                <path d="M24,0 L24,24 L0,24 L0,0 L24,0 Z M12.5935,23.2578 L12.5819,23.2595 L12.5109,23.295 L12.4919,23.2987 L12.4767,23.295 L12.4057,23.2595 C12.3958,23.2564 12.387,23.259 12.3821,23.2649 L12.378,23.2758 L12.3609,23.7031 L12.3659,23.7235 L12.3769,23.7357 L12.4805,23.8097 L12.4953,23.8136 L12.5071,23.8097 L12.6107,23.7357 L12.6233,23.7197 L12.6267,23.7031 L12.6096,23.2758 C12.6076,23.2657 12.601,23.2593 12.5935,23.2578 Z M12.8584,23.1453 L12.8445,23.1473 L12.6598,23.2397 L12.6499,23.2499 L12.6472,23.2611 L12.6651,23.6906 L12.6699,23.7034 L12.6784,23.7105 L12.8793,23.8032 C12.8914,23.8069 12.9022,23.803 12.9078,23.7952 L12.9118,23.7812 L12.8777,23.1665 C12.8753,23.1546 12.8674,23.147 12.8584,23.1453 Z M12.143,23.1473 C12.1332,23.1424 12.1222,23.1453 12.1156,23.1526 L12.1099,23.1665 L12.0758,23.7812 C12.0751,23.7927 12.0828,23.8019 12.0926,23.8046 L12.1083,23.8032 L12.3092,23.7105 L12.3186,23.7024 L12.3225,23.6906 L12.3404,23.2611 L12.3372,23.2485 L12.3278,23.2397 L12.143,23.1473 Z" id="MingCute" fill-rule="nonzero"></path>
                <path d="M19.668,7.24818 L19.0511,6.83687 L17.2313,8.2017 C17.8836,8.76593 18.4188,9.26394 18.7106,9.54042 C18.9286,9.74697 19.2716,9.84675 19.5368,9.97634 C20.7382,10.5634 21.5001,11.7838 21.5001,13.1209 L21.5001,15.0001 C21.5001,16.9331 19.9331,18.5001 18.0001,18.5001 L16.1633,18.5001 C15.6016,19.6826 14.3963,20.5001 13.0001,20.5001 C11.6039,20.5001 10.3986,19.6826 9.8369,18.5001 L3.00009,18.5001 L3.00009,15.5001 L9.83692,15.5001 C10.3987,14.3176 11.6039,13.5001 13.0001,13.5001 C14.3963,13.5001 15.6015,14.3176 16.1633,15.5001 L18.0001,15.5001 C18.2762,15.5001 18.5001,15.2762 18.5001,15.0001 L18.5001,13.1209 C18.5001,12.9299 18.3913,12.7556 18.2196,12.6717 C17.6626,12.3995 17.1032,12.1503 16.6471,11.718 C16.2793,11.3695 15.4964,10.6436 14.5995,9.90569 C13.7303,9.19058 12.8546,8.29923 11.7264,8.02277 C10.7356,7.77998 9.69402,7.71373 8.68047,7.64351 C6.91472,7.52118 4.83134,7.47682 3.02899,7.51155 L2.97119,4.51211 C4.85313,4.47584 7.02542,4.52166 8.88781,4.65069 C10.3198,4.74989 12.027,4.77462 13.3441,5.41819 C13.8107,5.64615 14.303,5.94868 14.7893,6.28316 L17.5341,4.22461166 C18.382,3.58864 19.5389,3.55653 20.4208,4.14449 L21.3321,4.75203 C22.0214,5.21156 22.2077,6.14286 21.7482,6.83215 C21.2886,7.52145 20.3573,7.70771 19.668,7.24818 Z M13.0001,16.5001 C12.7239,16.5001 12.5001,16.724 12.5001,17.0001 C12.5001,17.2763 12.7239,17.5001 13.0001,17.5001 C13.2762,17.5001 13.5001,17.2763 13.5001,17.0001 C13.5001,16.724 13.2762,16.5001 13.0001,16.5001 Z" id="形状" fill="#09244B"></path>
            </g>
        </g>
    </g>
</svg>

<svg xmlns="http://www.w3.org/2000/svg" width="24" height="24"><g fill="none" fill-rule="evenodd"><path d="M24 0v24H0V0h24ZM12.594 23.258l-.012.002-.071.035-.02.004-.014-.004-.071-.036c-.01-.003-.019 0-.024.006l-.004.01-.017.428.005.02.01.013.104.074.015.004.012-.004.104-.074.012-.016.004-.017-.017-.427c-.002-.01-.009-.017-.016-.018Zm.264-.113-.014.002-.184.093-.01.01-.003.011.018.43.005.012.008.008.201.092c.012.004.023 0 .029-.008l.004-.014-.034-.614c-.003-.012-.01-.02-.02-.022Zm-.715.002a.023.023 0 0 0-.027.006l-.006.014-.034.614c0 .012.007.02.017.024l.015-.002.201-.093.01-.008.003-.011.018-.43-.003-.012-.01-.01-.184-.092Z"/><path fill="#09244B" d="m19.668 7.248-.617-.411-1.82 1.365a45.104 45.104 0 0 1 1.48 1.338c.218.207.56.307.826.436a3.5 3.5 0 0 1 1.963 3.145V15a3.5 3.5 0 0 1-3.5 3.5h-1.837a3.5 3.5 0 0 1-6.326 0H3v-3h6.837a3.5 3.5 0 0 1 6.326 0H18a.5.5 0 0 0 .5-.5v-1.88a.5.5 0 0 0-.28-.45c-.557-.271-1.117-.52-1.573-.953A40.843 40.843 0 0 0 14.6 9.906c-.87-.715-1.745-1.607-2.874-1.883-.99-.243-2.032-.31-3.046-.38a67.502 67.502 0 0 0-5.651-.131l-.058-3c1.882-.036 4.054.01 5.917.139 1.432.099 3.139.124 4.456.767.467.228.959.53 1.445.865l2.745-2.058a2.5 2.5 0 0 1 2.887-.08l.911.607a1.5 1.5 0 1 1-1.664 2.496ZM13 16.5a.5.5 0 1 0 0 1 .5.5 0 0 0 0-1Z"/></g></svg>
